X: 28
T:Minuet. TBe.028
M:3/4
L:1/8
Q:140
S:Thomas Bennet MS,1718, VWML
R:minuet
O:England
H:1718
Z:vmp.C. Graebe..
K:G major
B2 | ef e2 ^d2 | e4 f2 | gfefge | f2 B2 e^d |!
 e2E2 fe | f2F2 e^d | e2 BAGF | E4 ||!
 F2 | GA G2D2 | G4A2 | BF GE Be | ^d4 B2 |! 
e2f4 | gdBG Bd | eBGE GB | e8 ||
